src/icons/blockchains/dark/fantom.svg

<svg width="24" height="24" viewBox="0 0 24 24" fill="none" xmlns="http://www.w3.org/2000/svg">
  <rect width="24" height="24" rx="12" fill="#080530" />
  <mask
    id="mask0_1131_18499"
    style="mask-type: alpha"
    maskUnits="userSpaceOnUse"
    x="4"
    y="4"
    width="16"
    height="16"
  >
    <rect x="4" y="4" width="16" height="16" fill="#D9D9D9" />
  </mask>
  <g mask="url(#mask0_1131_18499)"></g>
  <g clip-path="url(#clip0_1131_18499)">
    <path
      d="M7.32181 17.5634C7.69596 17.7571 8.07077 17.9493 8.44379 18.1447C9.58702 18.7431 10.7294 19.3426 11.8724 19.9414C12.0251 20.0214 12.1781 20.0186 12.3308 19.9383C13.1426 19.5121 13.9546 19.0861 14.7669 18.6607C15.4776 18.2884 16.1877 17.9147 16.9002 17.5458C17.101 17.4415 17.2018 17.2928 17.2018 17.0678C17.1996 13.7402 17.1989 10.4125 17.201 7.08484C17.201 6.85791 17.1072 6.70358 16.9066 6.59011C15.4404 5.76043 13.9761 4.92747 12.5124 4.09322C12.3916 4.02432 12.2682 3.99041 12.13 4.00236C12.0667 4.03105 12.0027 4.05823 11.9406 4.08887C11.78 4.16778 11.6201 4.2482 11.46 4.32798C10.7917 4.6762 10.124 5.02464 9.45552 5.37221C9.0456 5.58545 8.635 5.79694 8.22486 6.00953C7.92876 6.16299 7.63378 6.31884 7.33612 6.46969C7.23929 6.51882 7.15341 6.57946 7.07626 6.65359C7.02348 6.76313 7 6.87703 7 6.99941C7.00134 10.2497 7.00089 13.4997 7.00089 16.75C7.00089 16.8768 7.00045 17.0035 7.00201 17.13C7.00402 17.2917 7.08297 17.412 7.21916 17.4995C7.25315 17.5212 7.2876 17.5424 7.32181 17.5637V17.5634ZM15.6319 17.1957L15.6301 17.2018L15.6239 17.2002C15.6095 17.2061 15.5954 17.212 15.5811 17.2176C15.3776 17.3406 15.164 17.4462 14.951 17.5521C14.919 17.5702 14.8874 17.5893 14.8548 17.6062C13.9745 18.0682 13.0932 18.5285 12.2147 18.9939C12.128 19.0398 12.0647 19.0366 11.9808 18.992C11.0693 18.5101 10.1557 18.0319 9.24263 17.5528L9.23278 17.5515L9.22943 17.5422L9.22384 17.5375C8.89129 17.3732 8.56075 17.2048 8.23917 17.0205C8.20853 17.0211 8.19936 17.0011 8.19466 16.9767C7.984 16.9477 7.91042 16.8679 7.91042 16.6685C7.9102 15.3926 7.90975 14.1166 7.90975 12.8407C7.90975 12.8035 7.91333 12.7662 7.91579 12.7201C8.02514 12.7725 8.12578 12.809 8.21412 12.8697C8.23805 12.879 8.26265 12.8868 8.28569 12.8979C8.88167 13.1857 9.4761 13.4765 10.0741 13.7606C10.4643 13.9461 10.8508 14.139 11.2437 14.3193C11.4466 14.4123 11.6492 14.5135 11.8466 14.6205C12.0171 14.7127 12.1843 14.7116 12.3552 14.6161C12.6227 14.4669 12.8928 14.3221 13.1621 14.176C13.6453 13.9138 14.1288 13.6521 14.6123 13.3902C14.8083 13.2724 15.008 13.1613 15.2146 13.0625C15.3584 12.9759 15.5015 12.8879 15.6581 12.8233C15.8528 12.6923 16.0666 12.594 16.2876 12.4694C16.2876 12.5312 16.2876 12.5734 16.2876 12.6155C16.2876 13.8324 16.2876 15.0494 16.2876 16.2662C16.2876 16.4401 16.2881 16.6139 16.2868 16.7877C16.2865 16.8175 16.2986 16.8505 16.2563 16.8711C16.0572 16.9687 15.8701 17.0881 15.6639 17.1724L15.6646 17.1717L15.6429 17.1896C15.6411 17.1946 15.6375 17.1965 15.6321 17.195L15.6319 17.1957ZM8.43664 6.91486C8.48248 6.88768 8.50663 6.87138 8.53235 6.85813C8.88972 6.67249 9.24732 6.48708 9.60492 6.30189C10.4156 5.88215 11.2308 5.47002 12.0336 5.03659C12.2002 4.94661 12.3047 4.99421 12.4306 5.07202C12.4493 5.08354 12.4672 5.09659 12.4865 5.10746C13.4821 5.67304 14.4779 6.23841 15.4733 6.80422C15.5839 6.86704 15.6928 6.93225 15.8106 7.00137C15.7793 7.02159 15.7648 7.03267 15.7486 7.04114C14.6159 7.64956 13.4828 8.2571 12.3507 8.86681C12.2935 8.89768 12.2492 8.8905 12.1962 8.8629C11.2182 8.356 10.2396 7.85019 9.26119 7.34394C8.99282 7.20504 8.72513 7.06484 8.43686 6.91486H8.43664ZM7.91847 11.2457V7.65325C9.057 8.24167 10.1826 8.82355 11.3267 9.41479C10.1785 10.0317 9.05544 10.6349 7.91847 11.2457ZM15.7925 11.7234C14.7076 12.3151 13.6402 12.8972 12.5618 13.4854V10.0534C13.642 10.6118 14.7078 11.1629 15.7925 11.7234ZM11.6405 10.2588C11.6405 10.3175 11.6405 10.3536 11.6405 10.3895C11.6405 10.9503 11.6351 11.5113 11.6418 12.0721C11.6474 12.5377 11.615 13.0037 11.6595 13.4689C11.665 13.5269 11.6344 13.528 11.5915 13.5072C11.5217 13.4732 11.4517 13.4396 11.3817 13.4059C10.6316 13.0437 9.88133 12.6821 9.1317 12.319C8.90762 12.2106 8.6851 12.0986 8.43977 11.9773C9.51434 11.4004 10.5683 10.8346 11.6405 10.259V10.2588ZM13.2453 9.40131C13.2893 9.37567 13.317 9.3585 13.3459 9.34306C13.6921 9.15678 14.0383 8.97072 14.3849 8.78487C14.984 8.46382 15.5841 8.1445 16.1814 7.82084C16.2674 7.77411 16.2894 7.7791 16.2892 7.87953C16.2868 8.87463 16.287 9.86974 16.2892 10.8648C16.2892 10.9568 16.2731 10.9687 16.187 10.9235C15.7587 10.6981 15.3271 10.4792 14.8972 10.2569C14.3525 9.97516 13.8082 9.69281 13.2453 9.4011V9.40131Z"
      fill="white"
    />
  </g>
  <defs>
    <clipPath id="clip0_1131_18499">
      <rect width="10.2018" height="16" fill="white" transform="translate(7 4)" />
    </clipPath>
  </defs>
</svg>

<svg
  xmlns="http://www.w3.org/2000/svg"
  width="24"
  height="24"
  fill="none"
  xmlns:v="https://vecta.io/nano"
>
  <rect width="24" height="24" rx="12" fill="#080530" />
  <g clip-path="url(#A)">
    <path
      d="M7.322 17.563l1.122.581 3.429 1.797c.153.08.306.077.458-.003l2.436-1.278 2.133-1.115c.201-.104.302-.253.302-.478l-.001-9.983a.52.52 0 0 0-.294-.495l-4.394-2.497c-.121-.069-.244-.103-.382-.091l-.189.087-.481.239-2.004 1.044-1.231.637-.889.46a1.07 1.07 0 0 0-.26.184.78.78 0 0 0-.076.346l.001 9.751.001.38c.002.162.081.282.217.37l.103.064h0zm8.31-.368l-.002.006-.006-.002-.043.017c-.203.123-.417.229-.63.334l-.096.054-2.64 1.388c-.087.046-.15.043-.234-.002l-2.738-1.439-.01-.001-.003-.009-.006-.005-.985-.517c-.031.001-.04-.019-.045-.044-.211-.029-.284-.109-.284-.308v-3.828c0-.037.004-.075.006-.121.109.052.21.089.298.15l.072.028 1.788.863 1.17.559.603.301c.17.092.338.091.509-.004l.807-.44 1.45-.786.602-.328c.144-.087.287-.175.443-.239.195-.131.409-.229.63-.354v.146 3.651l-.001.521c0 .03.012.063-.03.083l-.592.301h.001l-.022.018-.011.006zM8.437 6.915l.096-.057 1.073-.556 2.429-1.265c.167-.09.271-.042.397.035l.056.035 2.987 1.697.337.197-.062.04-3.398 1.826c-.057.031-.101.024-.155-.004L9.261 7.344l-.824-.429h0zm-.518 4.331V7.653l3.408 1.762-3.408 1.831zm7.874.478l-3.231 1.762v-3.432l3.231 1.67zm-4.152-1.465v.131l.001 1.683.018 1.397c.005.058-.025.059-.068.038l-.21-.101-2.25-1.087-.692-.342 3.201-1.718h0zm1.605-.857l.101-.058 1.039-.558 1.797-.964c.086-.047.108-.042.108.059v2.985c0 .092-.016.104-.102.059l-1.29-.667-1.652-.856h0z"
      fill="#fff"
    />
  </g>
  <defs>
    <clipPath id="A">
      <path fill="#fff" transform="translate(7 4)" d="M0 0h10.202v16H0z" />
    </clipPath>
  </defs>
</svg>
